X: 1
T: Willie Coleman's
C: Willie Coleman
R: Jig
M: 6/8
L: 1/8
K: Gmaj
|:B 2G AGE | GED G2d | edB dgb | age dBA |
B2G AGE | GED G2d | edB dBA | BGF G3 :|
~g3 edB | dgb age | ~g3 edB | GBd e3 |
~g3 edB | dgb age | dBd gdB | AGF G3 :|